X:69
T:RVW2/2/69 Tarry Trousers
C:Sung by Mrs.Humphreys, Ingrave, Essex, 25 April 1904
L:1/8
Q:1/4=40
M:2/4
I:linebreak $
K:D
"^(Editorial suggestion)  " E | EB B"^(a)"c | AA/B/ (A/G/)"^(b)"E/E/ | A>B AG/F/ | GA B2 |$ 
w: As|I walked out one|fine sum- mer's mor- * ning the|mor- ning be- ing both|fine and clear|
B(B/c/) de | AA (B/c/)d | A>F B"^(c)"B | (B/A/)F !fermata!E ||$ E | EB B"^(a) var."c/B/ | 
w: There I * heard a|ten- der mo- * ther|talk- ing to her|daugh- * ter dear.|||
AA/B/ A/G/"^(b) var."E | A>B AG/F/ | GA B2 |$ BB/c/ de | AA B/c/d | A>F B"^(c) var."B/c/ | 
w: ||||||
B/A/F !fermata!E |] 
w: |



